storage/app/icons/phosphoricons/regular/kanban.svg

<svg xmlns="http://www.w3.org/2000/svg" fill="currentColor" viewBox="0 0 256 256"><path d="M216 48H40a8 8 0 0 0-8 8v152a16 16 0 0 0 16 16h40a16 16 0 0 0 16-16v-48h48v16a16 16 0 0 0 16 16h40a16 16 0 0 0 16-16V56a8 8 0 0 0-8-8M88 208H48v-80h40Zm0-96H48V64h40Zm64 32h-48V64h48Zm56 32h-40v-48h40Zm0-64h-40V64h40Z"/></svg>

<svg xmlns="http://www.w3.org/2000/svg" viewBox="0 0 256 256" fill="currentColor"><path d="M216,48H40a8,8,0,0,0-8,8V208a16,16,0,0,0,16,16H88a16,16,0,0,0,16-16V160h48v16a16,16,0,0,0,16,16h40a16,16,0,0,0,16-16V56A8,8,0,0,0,216,48ZM88,208H48V128H88Zm0-96H48V64H88Zm64,32H104V64h48Zm56,32H168V128h40Zm0-64H168V64h40Z"/></svg>
